icons/people.svg

<svg xmlns="http://www.w3.org/2000/svg" width="24" height="24" viewBox="0 0 24 24">
  <path d="M15.9981834,13.99827 L18,14 C20.9117647,14 21.9394464,15.884083 21.9973794,17.3664131 L22,17.5 L22,18.5 C22,19.4375 21.5605469,19.9355469 21.0936279,19.9941406 L21,20 L18,20 L18,18 C18,16.3633667 17.2136633,14.9103922 15.9981834,13.99827 Z M10,14 C12.9230769,14 15.8461538,14.9493754 15.9941334,17.3106425 L16,17.5 L16,18.5 C16,18.975 16,19.90125 15.142625,19.9926875 L15,20 L3,20 C2.1,20 2.01,19.19 2.001,18.6635 L2,17.5 C2,15.0641026 4.84812623,14.0522682 7.76928134,14.0019808 L8,14 L10,14 Z M17,6 C18.6568542,6 20,7.34314575 20,9 C20,10.6568542 18.6568542,12 17,12 C15.3431458,12 14,10.6568542 14,9 C14,7.34314575 15.3431458,6 17,6 Z M9,4 C11.209139,4 13,5.790861 13,8 C13,10.209139 11.209139,12 9,12 C6.790861,12 5,10.209139 5,8 C5,5.790861 6.790861,4 9,4 Z"/>
</svg>

<svg xmlns="http://www.w3.org/2000/svg" viewBox="0 0 24 24">
  <path d="M16 14h2c2.91 0 3.94 1.88 4 3.37v1.13c0 .94-.44 1.44-.9 1.5H18v-2a5 5 0 0 0-2-4zm-6 0c2.92 0 5.85.95 6 3.31v1.19c0 .48 0 1.4-.86 1.5H3c-.9 0-.99-.81-1-1.34V17.5c0-2.44 2.85-3.45 5.77-3.5H10zm7-8a3 3 0 1 1 0 6 3 3 0 0 1 0-6zM9 4a4 4 0 1 1 0 8 4 4 0 0 1 0-8z"/>
</svg>
